app/_assets/images/icons/icn-package-active.svg

<svg height="16" preserveAspectRatio="xMidYMid" viewBox="0 0 16 16" width="16" xmlns="http://www.w3.org/2000/svg"><path d="m9 16h-2s-6.012-3.436-6.012-3.436-.988-1.564-.988-1.564v-6.999s1.004-1.431 1.004-1.431 5.996-2.57 5.996-2.57h2s5.984 2.564 5.984 2.564 1.016 1.436 1.016 1.436v7s-.958 1.548-.958 1.548-6.042 3.452-6.042 3.452zm-6.05-4.314s4.05 2.314 4.05 2.314v-6s-5-2-5-2v4s.95 1.686.95 1.686zm6.05-9.686h-2s-5 2-5 2 5 2 5 2h2s5-2 5-2-5-2-5-2zm0 6v5 1s.985-.591.985-.591 3.006-1.804 3.006-1.804 1.009-1.605 1.009-1.605v-4s-5 2-5 2z" fill="#006ec2" fill-rule="evenodd"/></svg>

<svg xmlns="http://www.w3.org/2000/svg" xmlns:xlink="http://www.w3.org/1999/xlink" preserveAspectRatio="xMidYMid" width="16" height="16" viewBox="0 0 16 16">
  <defs>
    <style>

      .cls-2 {
        fill: #006ec2;
      }
    </style>
  </defs>
  <path d="M9.000,16.000 C9.000,16.000 7.000,16.000 7.000,16.000 C7.000,16.000 0.988,12.564 0.988,12.564 C0.988,12.564 -0.000,11.000 -0.000,11.000 C-0.000,11.000 0.000,4.001 0.000,4.001 C0.000,4.001 1.004,2.570 1.004,2.570 C1.004,2.570 7.000,0.000 7.000,0.000 C7.000,0.000 9.000,0.000 9.000,0.000 C9.000,0.000 14.984,2.564 14.984,2.564 C14.984,2.564 16.000,4.000 16.000,4.000 C16.000,4.000 16.000,11.000 16.000,11.000 C16.000,11.000 15.042,12.548 15.042,12.548 C15.042,12.548 9.000,16.000 9.000,16.000 ZM2.950,11.686 C2.950,11.686 7.000,14.000 7.000,14.000 C7.000,14.000 7.000,8.000 7.000,8.000 C7.000,8.000 2.000,6.000 2.000,6.000 C2.000,6.000 2.000,10.000 2.000,10.000 C2.000,10.000 2.950,11.686 2.950,11.686 ZM9.000,2.000 C9.000,2.000 7.000,2.000 7.000,2.000 C7.000,2.000 2.000,4.000 2.000,4.000 C2.000,4.000 7.000,6.000 7.000,6.000 C7.000,6.000 9.000,6.000 9.000,6.000 C9.000,6.000 14.000,4.000 14.000,4.000 C14.000,4.000 9.000,2.000 9.000,2.000 ZM9.000,8.000 C9.000,8.000 9.000,13.000 9.000,13.000 C9.000,13.000 9.000,14.000 9.000,14.000 C9.000,14.000 9.985,13.409 9.985,13.409 C9.985,13.409 12.991,11.605 12.991,11.605 C12.991,11.605 14.000,10.000 14.000,10.000 C14.000,10.000 14.000,6.000 14.000,6.000 C14.000,6.000 9.000,8.000 9.000,8.000 Z" id="path-1" class="cls-2" fill-rule="evenodd"/>
</svg>
